img/icons/svg/icon__cart.svg

<svg width="20" height="20" viewBox="0 0 20 20" fill="none" xmlns="http://www.w3.org/2000/svg">
<path d="M6.37995 15.2886C5.22678 15.2886 4.29199 16.2235 4.29199 17.3766C4.29199 18.5298 5.22682 19.4646 6.37995 19.4646C7.53313 19.4646 8.46791 18.5297 8.46791 17.3766C8.46796 16.2235 7.53313 15.2886 6.37995 15.2886ZM6.37995 18.5366C5.73931 18.5366 5.21998 18.0173 5.21998 17.3766C5.21998 16.736 5.73931 16.2167 6.37995 16.2167C7.02059 16.2167 7.53992 16.736 7.53992 17.3766C7.53996 18.0173 7.02059 18.5366 6.37995 18.5366Z" fill="black"/>
<path d="M15.1959 15.2886C14.0427 15.2886 13.1079 16.2235 13.1079 17.3766C13.1079 18.5298 14.0427 19.4646 15.1959 19.4646C16.349 19.4646 17.2838 18.5297 17.2838 17.3766C17.2838 16.2235 16.349 15.2886 15.1959 15.2886ZM15.1959 18.5366C14.5552 18.5366 14.0359 18.0173 14.0359 17.3766C14.0359 16.736 14.5552 16.2167 15.1959 16.2167C15.8365 16.2167 16.3558 16.736 16.3558 17.3766C16.3559 18.0173 15.8365 18.5366 15.1959 18.5366Z" fill="black"/>
<path d="M19.9054 3.1088C19.8087 3.00325 19.6766 2.93718 19.5342 2.92319L4.43116 2.71439L4.01357 1.43839C3.71938 0.585401 2.92061 0.00954724 2.01838 0H0.463996C0.20773 0 0 0.20773 0 0.463996C0 0.720262 0.20773 0.927992 0.463996 0.927992H2.01838C2.52287 0.939138 2.9671 1.26308 3.13198 1.74L6.07835 10.6255L5.84638 11.1591C5.58762 11.8263 5.66533 12.5773 6.05517 13.1775C6.44128 13.7669 7.09085 14.1307 7.79517 14.1519H16.8199C17.0762 14.1519 17.2839 13.9441 17.2839 13.6879C17.2839 13.4316 17.0762 13.2239 16.8199 13.2239H7.79512C7.39738 13.2139 7.03125 13.0047 6.82073 12.6671C6.61255 12.3336 6.56979 11.9227 6.70474 11.5535L6.89035 11.1359L16.6574 10.1151C17.7303 9.99689 18.6128 9.2166 18.8614 8.16627L19.975 3.50313C20.0252 3.36884 19.9986 3.21782 19.9054 3.1088ZM17.9566 7.95751C17.806 8.63364 17.232 9.13236 16.5415 9.18711L6.89035 10.1847L4.73277 3.64238L18.9542 3.85118L17.9566 7.95751Z" fill="black"/>
</svg>

<svg width="20" height="20" viewBox="0 0 20 20" fill="none" xmlns="http://www.w3.org/2000/svg"><path d="M6.38 15.289a2.088 2.088 0 100 4.176 2.088 2.088 0 000-4.176zm0 3.248a1.16 1.16 0 110-2.32 1.16 1.16 0 010 2.32zm8.816-3.248a2.088 2.088 0 100 4.176 2.088 2.088 0 000-4.176zm0 3.248a1.16 1.16 0 110-2.32 1.16 1.16 0 010 2.32zm4.709-15.428a.58.58 0 00-.37-.186L4.43 2.714l-.417-1.276A2.134 2.134 0 002.018 0H.464a.464.464 0 100 .928h1.554c.505.011.95.335 1.114.812l2.946 8.886-.232.533a2.227 2.227 0 00.21 2.018c.385.59 1.035.954 1.74.975h9.024a.464.464 0 000-.928H7.795a1.183 1.183 0 01-.974-.557 1.276 1.276 0 01-.116-1.114l.185-.417 9.767-1.02a2.552 2.552 0 002.204-1.95l1.114-4.663a.394.394 0 00-.07-.394zm-1.948 4.849a1.577 1.577 0 01-1.416 1.23l-9.65.997-2.158-6.543 14.221.21-.997 4.106z" fill="#000"/></svg>
